src/topics/icons/basekit.svg

<svg height="122" preserveAspectRatio="xMidYMid" viewBox="0 0 509 122" width="509" xmlns="http://www.w3.org/2000/svg"><g fill="#136ac9"><path d="m196.709647 43.2903529c-4.318118 0-7.838118.666353-10.450823 1.9764706-1.426824.7190589-2.703059 1.6752941-3.824942 2.8837647v-24.9524706h-10.096941v73.6h9.814588v-4.3482352c1.03153 1.1595294 2.243765 2.1044705 3.629177 2.8348235 2.725647 1.4494117 6.407529 2.1835294 10.925176 2.1835294 7.491765 0 12.905412-1.6301177 16.094118-4.8338824s4.803765-8.677647 4.803765-16.2748235v-11.9077647c0-7.6385882-1.615059-13.1350588-4.803765-16.3350588-3.184941-3.2037647-8.598588-4.826353-16.090353-4.826353m10.465882 22.8291765v8.5684706c0 7.3938824-1.118117 10.1571765-2.048 11.1736471-1.310117 1.4268235-4.321882 2.1835294-8.700235 2.1835294-4.976941 0-8.594823-1.0616471-10.752-3.162353-2.149647-2.085647-3.241412-5.5792941-3.241412-10.3830588v-8.1995294c0-4.8301177 1.091765-8.3388235 3.241412-10.432 2.157177-2.1007059 5.775059-3.1623529 10.752-3.1623529 4.382118 0 7.390118.7567058 8.700235 2.1835294.929883 1.0202353 2.048 3.7948235 2.048 11.2301176"/><path d="m266.669176 46.3661176c-1.520941-1.125647-3.727058-1.9124705-6.738823-2.3905882-2.812235-.4555294-6.964706-.6889412-12.318118-.6889412-7.137882 0-12.080941.9712942-15.115294 2.9665883-3.169882 2.0818823-4.781176 5.5454117-4.781176 10.2889411v2.4997648h10.070588l.033882-1.3251765c.048941-2.1985883.624941-3.6178824 1.754353-4.3331765.888471-.5684706 3.087059-1.2423529 8.512-1.2423529 7.939765 0 10.383059.9637647 11.136 1.5322353.854588.64 1.852236 2.3529411 1.852236 6.8705882v5.4061176c-1.042824-.7491764-2.266353-1.3327058-3.651765-1.7694117-2.556235-.794353-6.095059-1.178353-10.816-1.178353-4.517647 0-7.890824.218353-10.326588.666353-2.56.4705882-4.555295 1.3025882-5.944471 2.4621176-1.622588 1.3665883-2.800941 3.2075294-3.493647 5.4437647-.666353 2.1458824-.990118 4.9882353-.990118 8.6814118 0 6.4903529 1.509647 11.0418824 4.48753 13.5378824 2.947764 2.469647 8.391529 3.6818823 16.643764 3.6818823 4.555295 0 8.207059-.5007059 10.838589-1.4908235 1.475764-.5496471 2.752-1.2988236 3.821176-2.2287059l.161882 3.0569412h9.411765v-36.442353c0-4.2917647-.323765-7.2809411-.990117-9.125647-.673883-1.9350589-1.867295-3.5614118-3.557648-4.8790589m-5.586823 31.0324706v5.2856471c0 .9788235-.301177 2.4131765-2.925177 3.5990588-2.281411 1.0352941-5.707294 1.5698824-10.157176 1.5698824-6.083765 0-8.572235-.9261177-9.588706-1.6978824-1.374118-1.0390588-2.070588-3.3355294-2.070588-6.8028235 0-2.9929412.647529-4.992 1.916235-5.9369412.952471-.7115294 3.279059-1.5623529 8.926118-1.5623529 5.089882 0 8.805647.5195294 11.041882 1.5397647 1.950118.8922353 2.857412 2.1684706 2.857412 4.005647"/><path d="m321.163294 66.8423529c-1.170823-.549647-2.977882-.9487058-5.530353-1.2385882-2.413176-.2710588-5.756235-.4931765-9.961412-.6512941-.704-.0338824-1.712941-.0677647-3.030588-.0941177-6.064941-.1505882-8.410353-.7491764-9.276235-1.2009411-.451765-.2522353-.737882-.5985883-.922353-1.088-.124235-.3651765-.346353-1.3214118-.346353-3.6856471 0-1.8823529.293647-4.3181176 1.682824-5.2517647.726588-.4856471 2.974117-1.2988235 9.829647-1.2988235 6.851764 0 9.72047.6211764 10.906353 1.152 1.434352.6287059 2.078117 1.6564706 2.078117 3.3505882v1.8334118h10.145883v-1.3552941c0-5.1425883-1.536-8.8282353-4.555295-10.9628236-2.906353-2.0592941-8.135529-3.0569412-15.962353-3.0569412-10.002823 0-16.372705 1.0428236-19.459764 3.1962353-3.2 2.2287059-4.815059 6.3962353-4.815059 12.3934118 0 3.6254118.429176 6.3623529 1.332706 8.3614118.929882 2.0818823 2.499765 3.7308235 4.630588 4.9091764 1.020235.5872942 3.384471 1.3025883 12.641882 1.562353 3.068236.0903529 5.504.192 7.311059.2823529 5.970824.3087059 7.785412 1.1821177 8.338824 1.6752941.63247.5647059 1.381647 1.984 1.381647 5.5378824 0 2.9101176-.579765 4.8414118-1.728 5.7449412-.700235.549647-3.060706 1.472-11.068235 1.472-6.814118 0-9.630118-.8395294-10.782118-1.5397647-1.487059-.8997647-2.209882-2.6014118-2.209882-5.2028236v-2.4884706h-10.232471v2.688c0 5.8352942 1.648941 9.9614118 4.882823 12.2691765 3.136 2.2362353 9.174589 3.328 18.443295 3.328 4.382117 0 7.872-.1581176 10.36047-.4668235 2.688-.3275294 4.600471-.8847059 5.842824-1.690353 2.590117-1.5849411 4.434823-3.4785882 5.462588-5.605647 1.024-2.112 1.517176-5.0409412 1.517176-8.9712941 0-3.8588236-.50447-6.7651765-1.551058-8.8771765-1.057883-2.2061176-2.872471-3.8927059-5.357177-5.0296471"/><path d="m374.381176 79.3788235-.105411 1.2348236c-.244706 2.7821176-1.088 4.7247058-2.50353 5.7562353-1.027764.7604705-3.354353 1.664-8.538353 1.664h-3.478588c-5.737412 0-8.075294-1.2047059-9.020235-2.2136471-.963765-1.0277647-2.115765-3.5087059-2.115765-9.4795294 0-1.0992941.015059-1.9501177.030118-2.5675294 0-.128.007529-.2447059.007529-.3689412l36.144941-.0564706v-8.9148235c0-7.7101177-1.645176-13.2291765-4.890353-16.3952941-3.275294-3.2075295-8.734117-4.7698824-16.681411-4.7698824h-3.471059c-7.913412 0-13.345883 1.5623529-16.609883 4.7698824-3.271529 3.2188235-4.860235 8.5797647-4.860235 16.3915294v11.9002353c0 7.7778823 1.6 13.1275294 4.890353 16.3463529 3.279059 3.2112941 8.734118 4.7698824 16.677647 4.7698824h3.478588c7.009883 0 12.265412-1.3138824 15.604706-3.9002353 3.418353-2.6465883 5.364706-6.9345883 5.763765-12.7397647l.105412-1.4531765zm.030118-15.2395294h-25.694118v-.5910588c0-4.2428235.715295-7.2282353 2.093177-8.6249412.948706-.96 3.264-2.1157647 8.948706-2.1157647h3.478588c5.718588 0 8.079059 1.1595294 9.050353 2.1270588 1.381647 1.3929412 2.123294 4.3670589 2.123294 8.6098824z"/><path d="m438.226824 42.1534118h-16.801883l-14.034823 16.7115294v-37.4738824h-13.722353v77.2178824h13.722353v-20.8414118l16.816941 20.8414118h17.566117l-25.234823-30.9270588z"/><path d="m442.703059 21.391059h13.726118v14.708706h-13.726118z"/><path d="m442.703059 42.153412h13.726118v56.455529h-13.726118z"/><path d="m494.366118 74.6164706v4.6418823c0 4.5816471-.865883 5.76-1.042824 5.952-.154353.1694118-1.133176 1.024-4.939294 1.024-2.970353 0-4.544-.5609411-5.022118-1.088-.256-.2823529-1.103058-1.5435294-1.103058-5.888v-24.4517647h24.587294v-12.6569411h-24.587294v-11.2865883h-13.771295v11.2828236h-6.147764v12.6569411h6.155294v23.4014118c0 7.6122353 1.344 12.8790588 4.133647 16.0903529 2.857412 3.2978824 7.698823 4.9731765 14.381176 4.9731765 8.357647 0 13.869177-1.5209412 16.850824-4.6456471 2.944-3.0795294 4.382118-8.4517647 4.382118-16.421647v-3.584z"/><path d="m63.7025882 54.4489412c2.3717647-.410353 3.9868236-1.4908236 4.8489412-3.226353.8696471-1.7355294 1.3025882-4.005647 1.3025882-6.8178823 0-2.7331765-.4555294-4.7811765-1.3590588-6.1402353-.6851764-.8621177-1.6715294-1.4494118-2.9703529-1.7656471-1.2912941-.3124706-3.3656471-.4743529-6.2117647-.4743529h-19.418353v18.6164706h19.2338824c2.2061176-.0075294 3.7345882-.0677647 4.5741176-.192z"/><path d="m138.296471 0h-126.4037651c-6.56941178 0-11.8927059 5.31952941-11.8927059 11.8814118v97.4155292c0 6.554353 5.32329412 11.877647 11.8889412 11.877647h126.4075298c6.565647 0 11.888941-5.323294 11.888941-11.877647v-97.4155292c.003764-6.56188239-5.31953-11.8814118-11.888941-11.8814118zm-57.7882357 92.9694118c-3.1774118 2.7971764-8.7190588 4.1863529-16.6174118 4.1863529h-38.0574117v-73.1331765h36.6983529c8.4668235 0 14.1327059 1.5322353 16.9938824 4.5967059 2.9289411 2.6315294 4.3821176 7.4465883 4.3821176 14.4301177 0 5.5190588-1.0089412 9.5811764-3.0230588 12.1825882-1.6037647 1.9049412-4.0734118 3.2414118-7.4089412 3.9981176v.384c3.6668235.410353 6.4037647 1.5472942 8.1957647 3.392 1.7957647 1.8447059 2.906353 3.8851765 3.3505882 6.1138824.4329412 2.2362353.6550589 4.7849412.6550589 7.6536471 0 7.8945882-1.728 13.285647-5.1689412 16.1957647zm37.1501177 4.1863529-31.9397648-37.4249412 29.4136468-35.7007059h17.15953l-29.571765 35.7835295 32.602353 37.349647z"/><path d="m61.6508235 65.3741176h-21.7562353v19.7835295h20.9957647c2.56 0 4.5665883-.192 6.0272942-.5647059 3.0682353-1.114353 4.6004705-4.1072941 4.6004705-8.9788236 0-4.0282352-.6174117-6.7614117-1.8597647-8.192-1.4305882-1.3628235-4.096-2.048-8.0075294-2.048z"/></g></svg>

<?xml version="1.0" encoding="UTF-8" standalone="no"?>
<svg width="509px" height="122px" viewBox="0 0 509 122" version="1.1" xmlns="http://www.w3.org/2000/svg" xmlns:xlink="http://www.w3.org/1999/xlink" preserveAspectRatio="xMidYMid">
	<g fill="#136AC9">
		<path d="M196.709647,43.2903529 C192.391529,43.2903529 188.871529,43.9567059 186.258824,45.2668235 C184.832,45.9858824 183.555765,46.9421176 182.433882,48.1505882 L182.433882,23.1981176 L172.336941,23.1981176 L172.336941,96.7981176 L182.151529,96.7981176 L182.151529,92.4498824 C183.183059,93.6094118 184.395294,94.5543529 185.780706,95.2847059 C188.506353,96.7341176 192.188235,97.4682353 196.705882,97.4682353 C204.197647,97.4682353 209.611294,95.8381176 212.8,92.6343529 C215.988706,89.4305882 217.603765,83.9567059 217.603765,76.3595294 L217.603765,64.4517647 C217.603765,56.8131765 215.988706,51.3167059 212.8,48.1167059 C209.615059,44.9129412 204.201412,43.2903529 196.709647,43.2903529 M207.175529,66.1195294 L207.175529,74.688 C207.175529,82.0818824 206.057412,84.8451765 205.127529,85.8616471 C203.817412,87.2884706 200.805647,88.0451765 196.427294,88.0451765 C191.450353,88.0451765 187.832471,86.9835294 185.675294,84.8828235 C183.525647,82.7971765 182.433882,79.3035294 182.433882,74.4997647 L182.433882,66.3002353 C182.433882,61.4701176 183.525647,57.9614118 185.675294,55.8682353 C187.832471,53.7675294 191.450353,52.7058824 196.427294,52.7058824 C200.809412,52.7058824 203.817412,53.4625882 205.127529,54.8894118 C206.057412,55.9096471 207.175529,58.6842353 207.175529,66.1195294"></path>
		<path d="M266.669176,46.3661176 C265.148235,45.2404706 262.942118,44.4536471 259.930353,43.9755294 C257.118118,43.52 252.965647,43.2865882 247.612235,43.2865882 C240.474353,43.2865882 235.531294,44.2578824 232.496941,46.2531765 C229.327059,48.3350588 227.715765,51.7985882 227.715765,56.5421176 L227.715765,59.0418824 L237.786353,59.0418824 L237.820235,57.7167059 C237.869176,55.5181176 238.445176,54.0988235 239.574588,53.3835294 C240.463059,52.8150588 242.661647,52.1411765 248.086588,52.1411765 C256.026353,52.1411765 258.469647,53.1049412 259.222588,53.6734118 C260.077176,54.3134118 261.074824,56.0263529 261.074824,60.544 L261.074824,65.9501176 C260.032,65.2009412 258.808471,64.6174118 257.423059,64.1807059 C254.866824,63.3863529 251.328,63.0023529 246.607059,63.0023529 C242.089412,63.0023529 238.716235,63.2207059 236.280471,63.6687059 C233.720471,64.1392941 231.725176,64.9712941 230.336,66.1308235 C228.713412,67.4974118 227.535059,69.3383529 226.842353,71.5745882 C226.176,73.7204706 225.852235,76.5628235 225.852235,80.256 C225.852235,86.7463529 227.361882,91.2978824 230.339765,93.7938824 C233.287529,96.2635294 238.731294,97.4757647 246.983529,97.4757647 C251.538824,97.4757647 255.190588,96.9750588 257.822118,95.9849412 C259.297882,95.4352941 260.574118,94.6861176 261.643294,93.7562353 L261.805176,96.8131765 L271.216941,96.8131765 L271.216941,60.3708235 C271.216941,56.0790588 270.893176,53.0898824 270.226824,51.2451765 C269.552941,49.3101176 268.359529,47.6837647 266.669176,46.3661176 M261.082353,77.3985882 L261.082353,82.6842353 C261.082353,83.6630588 260.781176,85.0974118 258.157176,86.2832941 C255.875765,87.3185882 252.449882,87.8531765 248,87.8531765 C241.916235,87.8531765 239.427765,86.9270588 238.411294,86.1552941 C237.037176,85.1162353 236.340706,82.8197647 236.340706,79.3524706 C236.340706,76.3595294 236.988235,74.3604706 238.256941,73.4155294 C239.209412,72.704 241.536,71.8531765 247.183059,71.8531765 C252.272941,71.8531765 255.988706,72.3727059 258.224941,73.3929412 C260.175059,74.2851765 261.082353,75.5614118 261.082353,77.3985882"></path>
		<path d="M321.163294,66.8423529 C319.992471,66.2927059 318.185412,65.8936471 315.632941,65.6037647 C313.219765,65.3327059 309.876706,65.1105882 305.671529,64.9524706 C304.967529,64.9185882 303.958588,64.8847059 302.640941,64.8583529 C296.576,64.7077647 294.230588,64.1091765 293.364706,63.6574118 C292.912941,63.4051765 292.626824,63.0588235 292.442353,62.5694118 C292.318118,62.2042353 292.096,61.248 292.096,58.8837647 C292.096,57.0014118 292.389647,54.5656471 293.778824,53.632 C294.505412,53.1463529 296.752941,52.3331765 303.608471,52.3331765 C310.460235,52.3331765 313.328941,52.9543529 314.514824,53.4851765 C315.949176,54.1138824 316.592941,55.1416471 316.592941,56.8357647 L316.592941,58.6691765 L326.738824,58.6691765 L326.738824,57.3138824 C326.738824,52.1712941 325.202824,48.4856471 322.183529,46.3510588 C319.277176,44.2917647 314.048,43.2941176 306.221176,43.2941176 C296.218353,43.2941176 289.848471,44.3369412 286.761412,46.4903529 C283.561412,48.7190588 281.946353,52.8865882 281.946353,58.8837647 C281.946353,62.5091765 282.375529,65.2461176 283.279059,67.2451765 C284.208941,69.3270588 285.778824,70.976 287.909647,72.1543529 C288.929882,72.7416471 291.294118,73.4569412 300.551529,73.7167059 C303.619765,73.8070588 306.055529,73.9087059 307.862588,73.9990588 C313.833412,74.3077647 315.648,75.1811765 316.201412,75.6743529 C316.833882,76.2390588 317.583059,77.6583529 317.583059,81.2122353 C317.583059,84.1223529 317.003294,86.0536471 315.855059,86.9571765 C315.154824,87.5068235 312.794353,88.4291765 304.786824,88.4291765 C297.972706,88.4291765 295.156706,87.5896471 294.004706,86.8894118 C292.517647,85.9896471 291.794824,84.288 291.794824,81.6865882 L291.794824,79.1981176 L281.562353,79.1981176 L281.562353,81.8861176 C281.562353,87.7214118 283.211294,91.8475294 286.445176,94.1552941 C289.581176,96.3915294 295.619765,97.4832941 304.888471,97.4832941 C309.270588,97.4832941 312.760471,97.3251765 315.248941,97.0164706 C317.936941,96.6889412 319.849412,96.1317647 321.091765,95.3261176 C323.681882,93.7411765 325.526588,91.8475294 326.554353,89.7204706 C327.578353,87.6084706 328.071529,84.6795294 328.071529,80.7491765 C328.071529,76.8903529 327.567059,73.984 326.520471,71.872 C325.462588,69.6658824 323.648,67.9792941 321.163294,66.8423529"></path>
		<path d="M374.381176,79.3788235 L374.275765,80.6136471 C374.031059,83.3957647 373.187765,85.3383529 371.772235,86.3698824 C370.744471,87.1303529 368.417882,88.0338824 363.233882,88.0338824 L359.755294,88.0338824 C354.017882,88.0338824 351.68,86.8291765 350.735059,85.8202353 C349.771294,84.7924706 348.619294,82.3115294 348.619294,76.3407059 C348.619294,75.2414118 348.634353,74.3905882 348.649412,73.7731765 C348.649412,73.6451765 348.656941,73.5284706 348.656941,73.4042353 L384.801882,73.3477647 L384.801882,64.4329412 C384.801882,56.7228235 383.156706,51.2037647 379.911529,48.0376471 C376.636235,44.8301176 371.177412,43.2677647 363.230118,43.2677647 L359.759059,43.2677647 C351.845647,43.2677647 346.413176,44.8301176 343.149176,48.0376471 C339.877647,51.2564706 338.288941,56.6174118 338.288941,64.4291765 L338.288941,76.3294118 C338.288941,84.1072941 339.888941,89.4569412 343.179294,92.6757647 C346.458353,95.8870588 351.913412,97.4456471 359.856941,97.4456471 L363.335529,97.4456471 C370.345412,97.4456471 375.600941,96.1317647 378.940235,93.5454118 C382.358588,90.8988235 384.304941,86.6108235 384.704,80.8056471 L384.809412,79.3524706 L374.381176,79.3788235 L374.381176,79.3788235 Z M374.411294,64.1392941 L348.717176,64.1392941 L348.717176,63.5482353 C348.717176,59.3054118 349.432471,56.32 350.810353,54.9232941 C351.759059,53.9632941 354.074353,52.8075294 359.759059,52.8075294 L363.237647,52.8075294 C368.956235,52.8075294 371.316706,53.9670588 372.288,54.9345882 C373.669647,56.3275294 374.411294,59.3016471 374.411294,63.5444706 L374.411294,64.1392941 L374.411294,64.1392941 L374.411294,64.1392941 Z"></path>
		<path d="M438.226824,42.1534118 L421.424941,42.1534118 L407.390118,58.8649412 L407.390118,21.3910588 L393.667765,21.3910588 L393.667765,98.6089412 L407.390118,98.6089412 L407.390118,77.7675294 L424.207059,98.6089412 L441.773176,98.6089412 L416.538353,67.6818824 L438.226824,42.1534118 Z"></path>
		<rect x="442.703059" y="21.3910588" width="13.7261176" height="14.7087059"></rect>
		<rect x="442.703059" y="42.1534118" width="13.7261176" height="56.4555294"></rect>
		<path d="M494.366118,74.6164706 L494.366118,79.2583529 C494.366118,83.84 493.500235,85.0183529 493.323294,85.2103529 C493.168941,85.3797647 492.190118,86.2343529 488.384,86.2343529 C485.413647,86.2343529 483.84,85.6734118 483.361882,85.1463529 C483.105882,84.864 482.258824,83.6028235 482.258824,79.2583529 L482.258824,54.8065882 L506.846118,54.8065882 L506.846118,42.1496471 L482.258824,42.1496471 L482.258824,30.8630588 L468.487529,30.8630588 L468.487529,42.1458824 L462.339765,42.1458824 L462.339765,54.8028235 L468.495059,54.8028235 L468.495059,78.2042353 C468.495059,85.8164706 469.839059,91.0832941 472.628706,94.2945882 C475.486118,97.5924706 480.327529,99.2677647 487.009882,99.2677647 C495.367529,99.2677647 500.879059,97.7468235 503.860706,94.6221176 C506.804706,91.5425882 508.242824,86.1703529 508.242824,78.2004706 L508.242824,74.6164706 L494.366118,74.6164706 L494.366118,74.6164706 Z"></path>
		<path d="M63.7025882,54.4489412 C66.0743529,54.0385882 67.6894118,52.9581176 68.5515294,51.2225882 C69.4211765,49.4870588 69.8541176,47.2169412 69.8541176,44.4047059 C69.8541176,41.6715294 69.3985882,39.6235294 68.4950588,38.2644706 C67.8098824,37.4023529 66.8235294,36.8150588 65.5247059,36.4988235 C64.2334118,36.1863529 62.1590588,36.0244706 59.3129412,36.0244706 L39.8945882,36.0244706 L39.8945882,54.6409412 L59.1284706,54.6409412 C61.3345882,54.6334118 62.8630588,54.5731765 63.7025882,54.4489412 L63.7025882,54.4489412 Z"></path>
		<path d="M138.296471,0 L11.8927059,0 C5.32329412,0 0,5.31952941 0,11.8814118 L0,109.296941 C0,115.851294 5.32329412,121.174588 11.8889412,121.174588 L138.296471,121.174588 C144.862118,121.174588 150.185412,115.851294 150.185412,109.296941 L150.185412,11.8814118 C150.189176,5.31952941 144.865882,0 138.296471,0 L138.296471,0 Z M80.5082353,92.9694118 C77.3308235,95.7665882 71.7891765,97.1557647 63.8908235,97.1557647 L25.8334118,97.1557647 L25.8334118,24.0225882 L62.5317647,24.0225882 C70.9985882,24.0225882 76.6644706,25.5548235 79.5256471,28.6192941 C82.4545882,31.2508235 83.9077647,36.0658824 83.9077647,43.0494118 C83.9077647,48.5684706 82.8988235,52.6305882 80.8847059,55.232 C79.2809412,57.1369412 76.8112941,58.4734118 73.4757647,59.2301176 L73.4757647,59.6141176 C77.1425882,60.0244706 79.8795294,61.1614118 81.6715294,63.0061176 C83.4672941,64.8508235 84.5778824,66.8912941 85.0221176,69.12 C85.4550588,71.3562353 85.6771765,73.9049412 85.6771765,76.7736471 C85.6771765,84.6682353 83.9491765,90.0592941 80.5082353,92.9694118 L80.5082353,92.9694118 Z M117.658353,97.1557647 L85.7185882,59.7308235 L115.132235,24.0301176 L132.291765,24.0301176 L102.72,59.8136471 L135.322353,97.1632941 L117.658353,97.1557647 L117.658353,97.1557647 Z"></path>
		<path d="M61.6508235,65.3741176 L39.8945882,65.3741176 L39.8945882,85.1576471 L60.8903529,85.1576471 C63.4503529,85.1576471 65.4569412,84.9656471 66.9176471,84.5929412 C69.9858824,83.4785882 71.5181176,80.4856471 71.5181176,75.6141176 C71.5181176,71.5858824 70.9007059,68.8527059 69.6583529,67.4221176 C68.2277647,66.0592941 65.5623529,65.3741176 61.6508235,65.3741176 L61.6508235,65.3741176 Z"></path>
	</g>
</svg>
